assets/icons/reply.svg

<svg width="32" height="32" viewBox="0 0 32 32" fill="none" xmlns="http://www.w3.org/2000/svg">
<rect width="32" height="32" rx="16" fill="#E2E6FF"/>
<path d="M16.992 11H11.6587C11.442 11 11.2337 11.0083 11.0337 11.0333C8.79199 11.225 7.66699 12.55 7.66699 14.9917V18.325C7.66699 21.6583 9.00033 22.3167 11.6587 22.3167H11.992C12.1753 22.3167 12.417 22.4417 12.5253 22.5833L13.5253 23.9167C13.967 24.5083 14.6837 24.5083 15.1253 23.9167L16.1253 22.5833C16.2503 22.4167 16.4503 22.3167 16.6587 22.3167H16.992C19.4337 22.3167 20.7587 21.2 20.9503 18.95C20.9753 18.75 20.9837 18.5417 20.9837 18.325V14.9917C20.9837 12.3333 19.6503 11 16.992 11ZM11.417 17.6667C10.9503 17.6667 10.5837 17.2917 10.5837 16.8333C10.5837 16.375 10.9587 16 11.417 16C11.8753 16 12.2503 16.375 12.2503 16.8333C12.2503 17.2917 11.8753 17.6667 11.417 17.6667ZM14.3253 17.6667C13.8587 17.6667 13.492 17.2917 13.492 16.8333C13.492 16.375 13.867 16 14.3253 16C14.7837 16 15.1587 16.375 15.1587 16.8333C15.1587 17.2917 14.792 17.6667 14.3253 17.6667ZM17.242 17.6667C16.7753 17.6667 16.4087 17.2917 16.4087 16.8333C16.4087 16.375 16.7837 16 17.242 16C17.7003 16 18.0753 16.375 18.0753 16.8333C18.0753 17.2917 17.7003 17.6667 17.242 17.6667Z" fill="#5367FF"/>
<path d="M24.3162 11.6587V14.992C24.3162 16.6587 23.7996 17.792 22.7662 18.417C22.5162 18.567 22.2246 18.367 22.2246 18.0753L22.2329 14.992C22.2329 11.6587 20.3246 9.75033 16.9912 9.75033L11.9162 9.75866C11.6246 9.75866 11.4246 9.46699 11.5746 9.21699C12.1996 8.18366 13.3329 7.66699 14.9912 7.66699H20.3246C22.9829 7.66699 24.3162 9.00033 24.3162 11.6587Z" fill="#5367FF"/>
</svg>

<svg width="32" height="32" viewBox="0 0 32 32" fill="none" xmlns="http://www.w3.org/2000/svg"><rect width="32" height="32" rx="16" fill="#E2E6FF"/><path d="M17 11h-5.34q-.33 0-.63.03-3.36.3-3.36 3.96v3.33c0 3.34 1.33 4 3.99 4h.33c.19 0 .43.12.54.26l1 1.34c.44.59 1.15.59 1.6 0l1-1.34a.7.7 0 0 1 .53-.26h.33q3.67 0 3.96-3.37.04-.3.03-.62v-3.34Q20.98 11 17 11m-5.58 6.67a.83.83 0 0 1-.84-.84.84.84 0 0 1 1.67 0c0 .46-.37.84-.83.84m2.9 0a.83.83 0 0 1-.83-.84.84.84 0 0 1 1.67 0c0 .46-.37.84-.83.84m2.92 0a.83.83 0 0 1-.83-.84.83.83 0 1 1 .83.84" fill="#5367FF"/><path d="M24.32 11.66v3.33q0 2.5-1.55 3.43c-.25.15-.55-.05-.55-.34l.01-3.09c0-3.33-1.9-5.24-5.24-5.24h-5.07c-.3 0-.5-.28-.35-.53q.94-1.55 3.42-1.55h5.33q4 0 4 3.99" fill="#5367FF"/></svg>
